X:228
T:Polka pique
O:France
M:2/4
L:1/8
Q:1/4=130
K:C
de c2|d/2e/2d/2c/2 BG|de c2|d/2e/2d/2B/2 c2:|
|:cd/2e/2 de/2f/2|gf ed|cd/2e/2 de/2d/2|cB c2:||
